img/office-building.svg

<svg width="38" height="38" viewBox="0 0 38 38" fill="none" xmlns="http://www.w3.org/2000/svg">
<path d="M34.3441 28.3326C34.0475 28.3361 34.0801 28.3217 33.6857 28.3493V19.1224C33.6857 18.1349 32.8822 17.3315 31.8948 17.3315H27.3734C27.3709 17.3315 27.3686 17.3311 27.3662 17.3311H22.1596V3.43106L26.4297 7.55873C26.6711 7.79207 26.8095 8.11834 26.8095 8.45403V15.2639C26.8095 15.5713 27.0587 15.8205 27.3662 15.8205C27.6736 15.8205 27.9228 15.5713 27.9228 15.2639V8.45403C27.9228 7.81827 27.6607 7.20018 27.2035 6.75828L21.9898 1.71861C21.8726 1.60862 21.648 1.50991 21.4255 1.59117L12.0724 4.73508V2.56789C12.0795 1.62094 11.2298 0.796738 10.2414 0.854183C9.29612 0.854183 8.52699 1.62294 8.52699 2.56789V5.92681L6.07993 6.74938C5.11872 7.07252 4.47287 7.97087 4.47287 8.98499V28.3357C1.99582 28.3991 0 30.4324 0 32.9245V35.755C0 36.5235 0.625144 37.1485 1.39353 37.1485H36.6064C37.3749 37.1485 37.9999 36.5234 37.9999 35.755V31.9884C38 29.9726 36.36 28.3326 34.3441 28.3326ZM34.3441 29.4459C35.7461 29.4459 36.8867 30.5865 36.8867 31.9885V32.5724H31.4873V31.9885C31.4886 30.4669 32.8255 29.3141 34.3441 29.4459ZM32.5724 19.1224V28.6365C31.2799 29.2008 30.374 30.4905 30.374 31.9884V32.5724H22.1596V18.4448H31.8948C32.2684 18.4448 32.5724 18.7488 32.5724 19.1224ZM9.64027 2.56789C9.64027 2.2368 9.90998 1.96746 10.2414 1.96746C10.5391 1.92375 10.94 2.15717 10.9591 2.56789V5.10929L9.64027 5.5526V2.56789ZM4.47294 29.4479V32.5724H1.13095C1.3041 30.8578 2.72754 29.5068 4.47294 29.4479ZM1.11328 35.7551V33.6857H4.47294V36.0353H1.39361C1.23901 36.0353 1.11328 35.9096 1.11328 35.7551ZM5.58622 8.98499C5.58622 8.44958 5.92718 7.97532 6.43469 7.80469L21.0464 2.89319V5.92614L8.90625 10.0069C8.61487 10.1048 8.45804 10.4205 8.55601 10.7119C8.63416 10.9445 8.85103 11.0913 9.08356 11.0913C9.14234 11.0913 9.20216 11.082 9.26102 11.0622L21.0464 7.10073V9.93254L8.90625 14.0132C8.61487 14.1112 8.45804 14.4269 8.55601 14.7182C8.63416 14.9508 8.85103 15.0976 9.08356 15.0976C9.14234 15.0976 9.20216 15.0883 9.26102 15.0685L21.0464 11.107V13.9388L8.90625 18.0196C8.61487 18.1175 8.45804 18.4331 8.55601 18.7246C8.63416 18.9572 8.85103 19.104 9.08356 19.104C9.14234 19.104 9.20216 19.0946 9.26102 19.0748L21.0464 15.1134V17.886C21.0464 17.8868 21.0463 17.8875 21.0463 17.8882V17.9453L8.90625 22.0259C8.61487 22.1239 8.45804 22.4395 8.55601 22.7309C8.63416 22.9635 8.85103 23.1103 9.08356 23.1103C9.14234 23.1103 9.20216 23.1009 9.26102 23.0811L21.0462 19.1196V21.9515L13.4657 24.4996C13.1743 24.5975 13.0175 24.9131 13.1155 25.2046C13.1936 25.4372 13.4105 25.584 13.643 25.584C13.7018 25.584 13.7616 25.5747 13.8205 25.5548L21.0462 23.126V36.0353H16.2374V30.2512C16.2374 29.8721 16.0642 29.5231 15.7622 29.2939C15.4602 29.0647 15.0775 28.9917 14.7124 29.0937L9.53139 30.54C8.94009 30.7051 8.52714 31.2491 8.52714 31.8631V36.0353H5.58622V8.98499ZM9.64042 31.8631C9.64042 31.7468 9.71872 31.6437 9.83072 31.6123L11.8256 31.0554V36.0353H9.64035V31.8631H9.64042ZM12.9389 36.0353V30.7446L15.0117 30.1659C15.0397 30.158 15.0658 30.1629 15.089 30.1807C15.1123 30.1983 15.1241 30.2221 15.1241 30.2513V36.0353H12.9389ZM22.1596 36.0353V33.6857H30.374V36.0353H22.1596ZM36.8867 35.7551C36.8867 35.9097 36.761 36.0353 36.6065 36.0353H31.4873V33.6857H36.8867V35.7551Z" fill="white"/>
<path d="M9.08356 27.1166C9.14234 27.1166 9.20216 27.1073 9.26101 27.0875L11.3277 26.3928C11.6191 26.2949 11.7759 25.9792 11.6779 25.6878C11.58 25.3963 11.2643 25.2394 10.9729 25.3375L8.90625 26.0322C8.61487 26.1301 8.45804 26.4458 8.55601 26.7372C8.63416 26.9698 8.85103 27.1166 9.08356 27.1166Z" fill="white"/>
<path d="M24.5974 23.036H30.0562C30.5739 23.036 30.995 22.6148 30.995 22.0972V20.7574C30.995 20.2397 30.5739 19.8186 30.0562 19.8186H24.5974C24.0797 19.8186 23.6586 20.2397 23.6586 20.7574V22.0972C23.6586 22.6148 24.0798 23.036 24.5974 23.036ZM24.7719 20.9319H29.8817V21.9227H24.7719V20.9319Z" fill="white"/>
<path d="M24.5974 27.2686H30.0562C30.5739 27.2686 30.995 26.8475 30.995 26.3298V24.99C30.995 24.4723 30.5739 24.0512 30.0562 24.0512H24.5974C24.0797 24.0512 23.6586 24.4724 23.6586 24.99V26.3298C23.6586 26.8475 24.0798 27.2686 24.5974 27.2686ZM24.7719 25.1645H29.8817V26.1553H24.7719V25.1645Z" fill="white"/>
<path d="M24.5974 31.5446H26.4029C26.9206 31.5446 27.3417 31.1235 27.3417 30.6059V29.266C27.3417 28.7483 26.9206 28.3272 26.4029 28.3272H24.5974C24.0797 28.3272 23.6586 28.7483 23.6586 29.266V30.6059C23.6586 31.1235 24.0798 31.5446 24.5974 31.5446ZM24.7719 29.4405H26.2285V30.4313H24.7719V29.4405Z" fill="white"/>
</svg>

<svg width="38" height="38" fill="none" xmlns="http://www.w3.org/2000/svg"><path d="M34.344 28.333c-.297.003-.264-.011-.658.016v-9.227c0-.987-.804-1.79-1.791-1.79H22.16v-13.9l4.27 4.127c.241.233.38.56.38.895v6.81a.557.557 0 001.113 0v-6.81a2.37 2.37 0 00-.72-1.696l-5.213-5.04a.568.568 0 00-.564-.127l-9.354 3.144V2.568c.008-.947-.842-1.771-1.83-1.714-.946 0-1.715.769-1.715 1.714v3.359l-2.447.822a2.357 2.357 0 00-1.607 2.236v19.35A4.596 4.596 0 000 32.926v2.83c0 .768.625 1.393 1.394 1.393h35.212c.769 0 1.394-.625 1.394-1.393v-3.767a3.66 3.66 0 00-3.656-3.655zm0 1.113a2.545 2.545 0 012.543 2.542v.584h-5.4v-.584c.002-1.521 1.338-2.674 2.857-2.542zm-1.772-10.324v9.515a3.66 3.66 0 00-2.198 3.351v.584H22.16V18.445h9.735c.373 0 .677.304.677.677zM9.64 2.568c0-.331.27-.6.601-.6.298-.044.699.19.718.6v2.541l-1.319.444V2.568zm-5.167 26.88v3.124H1.13a3.484 3.484 0 013.342-3.124zm-3.36 6.307v-2.07h3.36v2.35h-3.08a.28.28 0 01-.28-.28zm4.473-26.77c0-.535.341-1.01.849-1.18l14.611-4.912v3.033l-12.14 4.08a.557.557 0 10.355 1.056l11.785-3.961v2.832l-12.14 4.08a.557.557 0 00.355 1.056l11.785-3.962v2.832l-12.14 4.08a.557.557 0 10.355 1.056l11.785-3.962v2.832l-12.14 4.08a.557.557 0 00.355 1.056l11.785-3.961v2.831l-7.58 2.549a.557.557 0 10.354 1.055l7.226-2.429v12.91h-4.809V30.25c0-.379-.173-.728-.475-.957a1.192 1.192 0 00-1.05-.2l-5.18 1.446a1.378 1.378 0 00-1.005 1.323v4.172h-2.94V8.985zM9.64 31.863a.26.26 0 01.19-.25l1.996-.558v4.98H9.64v-4.172zm3.299 4.172v-5.29l2.073-.58a.084.084 0 01.077.016.084.084 0 01.035.07v5.784H12.94zm9.22 0v-2.35h8.215v2.35H22.16zm14.728-.28a.28.28 0 01-.28.28h-5.12v-2.35h5.4v2.07z" fill="#fff"/><path d="M9.084 27.117c.058 0 .118-.01.177-.03l2.067-.694a.557.557 0 10-.355-1.056l-2.067.695a.557.557 0 00.178 1.085zm15.513-4.081h5.46a.94.94 0 00.938-.939v-1.34a.94.94 0 00-.939-.938h-5.459a.94.94 0 00-.938.938v1.34a.94.94 0 00.938.939zm.175-2.104h5.11v.99h-5.11v-.99zm-.175 6.337h5.46a.94.94 0 00.938-.94V24.99a.94.94 0 00-.939-.939h-5.459a.94.94 0 00-.938.939v1.34a.94.94 0 00.938.939zm.175-2.104h5.11v.99h-5.11v-.99zm-.175 6.38h1.806a.94.94 0 00.939-.94v-1.339a.94.94 0 00-.94-.939h-1.805a.94.94 0 00-.938.939v1.34a.94.94 0 00.938.939zm.175-2.105h1.457v.991h-1.457v-.99z" fill="#fff"/></svg>
